icons/numix/32x32/mimetypes/libreoffice-extension.svg

<?xml version="1.0" encoding="UTF-8" standalone="no"?>
<svg
   xmlns:dc="http://purl.org/dc/elements/1.1/"
   xmlns:cc="http://creativecommons.org/ns#"
   xmlns:rdf="http://www.w3.org/1999/02/22-rdf-syntax-ns#"
   xmlns:svg="http://www.w3.org/2000/svg"
   xmlns="http://www.w3.org/2000/svg"
   xmlns:sodipodi="http://sodipodi.sourceforge.net/DTD/sodipodi-0.dtd"
   xmlns:inkscape="http://www.inkscape.org/namespaces/inkscape"
   width="32"
   height="32"
   viewBox="0 0 32 32"
   id="svg2"
   version="1.1"
   inkscape:version="0.48.5 r10040"
   sodipodi:docname="libreoffice-extension.svg">
  <metadata
     id="metadata32">
    <rdf:RDF>
      <cc:Work
         rdf:about="">
        <dc:format>image/svg+xml</dc:format>
        <dc:type
           rdf:resource="http://purl.org/dc/dcmitype/StillImage" />
      </cc:Work>
    </rdf:RDF>
  </metadata>
  <defs
     id="defs30" />
  <sodipodi:namedview
     pagecolor="#ffffff"
     bordercolor="#666666"
     borderopacity="1"
     objecttolerance="10"
     gridtolerance="10"
     guidetolerance="10"
     inkscape:pageopacity="0"
     inkscape:pageshadow="2"
     inkscape:window-width="1280"
     inkscape:window-height="970"
     id="namedview28"
     showgrid="true"
     inkscape:zoom="5.6568543"
     inkscape:cx="-9.6499081"
     inkscape:cy="24.640425"
     inkscape:window-x="0"
     inkscape:window-y="0"
     inkscape:window-maximized="1"
     inkscape:current-layer="svg2">
    <inkscape:grid
       type="xygrid"
       id="grid3028" />
  </sodipodi:namedview>
  <path
     style="fill:#888888;fill-opacity:1"
     d="M 5.335888,2.985e-4 C 4.648414,3.135e-4 4,0.6767889 4,1.3940322 L 4,30.606268 C 4,31.282757 4.687474,32 5.335888,32 l 21.327332,0 c 0.648414,0 1.335888,-0.717243 1.335888,-1.393732 L 28,9.0000007 19,5e-7 z"
     id="path4-1"
     inkscape:connector-curvature="0"
     sodipodi:nodetypes="ssssssccs" />
  <path
     style="fill:#000000;fill-opacity:0.19599998"
     d="M 21,9.0000007 28,16 28,9.0000007 z"
     id="path6-4"
     inkscape:connector-curvature="0"
     sodipodi:nodetypes="cccc" />
  <path
     style="fill:#ffffff;fill-opacity:0.39200003"
     d="m 19.000306,2.985e-4 8.991594,8.9997022 -7.613262,0 c -0.672951,0 -1.378332,-0.7134896 -1.378332,-1.3864402 z"
     id="path8-6"
     inkscape:connector-curvature="0"
     sodipodi:nodetypes="ccssc" />
  <g
     style="fill:#ffffff"
     id="g10"
     transform="translate(0,-1.667969)">
    <path
       d="m 12,14.667969 0,4 c 0,-0.738281 0.597656,-1.335938 1.332031,-1.335938 0.738281,0 1.335938,0.597657 1.335938,1.335938 C 14.667969,19.402344 14.070312,20 13.332031,20 12.597656,20 12,19.402344 12,18.667969 l 0,4 4,0 c -0.738281,0 -1.332031,-0.597657 -1.332031,-1.335938 C 14.667969,20.597656 15.261719,20 16,20 c 0.738281,0 1.332031,0.597656 1.332031,1.332031 0,0.738281 -0.59375,1.335938 -1.332031,1.335938 l 4,0 0,-8 z"
       id="path12"
       inkscape:connector-curvature="0"
       sodipodi:nodetypes="ccssscccssscccc" />
    <path
       d="m 17.332031,13.332031 c 0,0.738281 -0.597656,1.335938 -1.332031,1.335938 -0.738281,0 -1.332031,-0.597657 -1.332031,-1.335938 C 14.667969,12.597656 15.261719,12 16,12 c 0.734375,0 1.332031,0.597656 1.332031,1.332031 z"
       id="path14"
       inkscape:connector-curvature="0" />
    <path
       d="M 22.667969,18.667969 C 22.667969,19.402344 22.070312,20 21.332031,20 20.597656,20 20,19.402344 20,18.667969 c 0,-0.738281 0.597656,-1.335938 1.332031,-1.335938 0.738281,0 1.335938,0.597657 1.335938,1.335938 z"
       id="path16"
       inkscape:connector-curvature="0" />
  </g>
  <path
     style="fill:#000000;fill-opacity:0.19599998"
     d="m 4,24 0,6.667969 C 4,31.316407 4.6875,32 5.332031,32 l 21.335938,0 C 27.3125,32 28,31.316407 28,30.667969 L 28,24 z"
     id="path18"
     inkscape:connector-curvature="0" />
  <g
     style="fill:#ffffff"
     id="g20"
     transform="matrix(1.0612185,0,0,1.0612185,-1.055667,-0.7271786)">
    <path
       d="m 10.484375,27.332031 c 0,0.25 0.0078,0.484375 0.02734,0.703125 0.02344,0.214844 0.06641,0.402344 0.128906,0.5625 0.06641,0.160156 0.160156,0.285156 0.277344,0.378906 0.117187,0.09375 0.273437,0.140626 0.46875,0.140626 0.191406,0 0.34375,-0.04688 0.460937,-0.140626 0.121094,-0.09375 0.214844,-0.21875 0.277344,-0.378906 0.06641,-0.167968 0.109375,-0.355468 0.128906,-0.570312 0.02344,-0.214844 0.03516,-0.445313 0.03516,-0.695313 0,-0.246093 -0.01172,-0.476562 -0.03516,-0.691406 -0.01953,-0.222656 -0.0625,-0.410156 -0.128906,-0.570313 -0.0625,-0.160156 -0.152344,-0.285156 -0.269531,-0.378906 -0.117188,-0.09375 -0.273438,-0.140625 -0.46875,-0.140625 -0.195313,0 -0.351563,0.04687 -0.46875,0.140625 -0.117188,0.09375 -0.210938,0.222656 -0.277344,0.386719 -0.0625,0.160156 -0.105469,0.347656 -0.128906,0.5625 -0.01953,0.214844 -0.02734,0.445313 -0.02734,0.691406 m -1.152344,0 c 0,-0.878906 0.183594,-1.542969 0.542969,-1.988281 0.363281,-0.453125 0.867188,-0.675781 1.511719,-0.675781 0.667969,0 1.179687,0.222656 1.527343,0.675781 0.351563,0.445312 0.527344,1.109375 0.527344,1.988281 0,0.882813 -0.179687,1.546875 -0.535156,2 C 12.550781,29.777344 12.046875,30 11.394531,30 c -0.667969,0 -1.179687,-0.222656 -1.535156,-0.667969 -0.351563,-0.453125 -0.527344,-1.117187 -0.527344,-2"
       id="path22"
       inkscape:connector-curvature="0" />
    <path
       d="m 16.96875,29.890625 c -0.117188,-0.277344 -0.261719,-0.589844 -0.433594,-0.929687 -0.167968,-0.34375 -0.34375,-0.683594 -0.527344,-1.023438 -0.175781,0.324219 -0.355468,0.660156 -0.53125,1.015625 -0.179687,0.34375 -0.332031,0.660156 -0.460937,0.9375 l -1.226563,0 c 0.0625,-0.148437 0.152344,-0.324219 0.269532,-0.535156 0.121094,-0.207031 0.253906,-0.433594 0.394531,-0.675781 0.148437,-0.242188 0.300781,-0.492188 0.460937,-0.742188 0.160157,-0.261719 0.3125,-0.507812 0.460938,-0.746094 l -1.492188,-2.410156 1.222657,0 0.902343,1.636719 0.949219,-1.636719 1.140625,0 -1.453125,2.386719 c 0.164063,0.238281 0.328125,0.484375 0.488281,0.742187 0.160157,0.257813 0.308594,0.511719 0.441407,0.761719 0.140625,0.242187 0.265625,0.46875 0.367187,0.683594 0.105469,0.210937 0.1875,0.386719 0.25,0.535156 l -1.222656,0"
       id="path24"
       inkscape:connector-curvature="0" />
    <path
       d="m 22.667969,24.78125 0,0.84375 -1.503907,0 0,4.265625 -1.140624,0 0,-4.265625 -1.5,0 0,-0.84375 4.144531,0"
       id="path26"
       inkscape:connector-curvature="0" />
  </g>
</svg>

<svg width="32" xmlns="http://www.w3.org/2000/svg" height="32" viewBox="0 0 32 32" xmlns:xlink="http://www.w3.org/1999/xlink">
<path style="fill:#888" d="M 5.332031 0.667969 C 4.648438 0.667969 4 1.3125 4 2 L 4 30 C 4 30.648438 4.6875 31.332031 5.332031 31.332031 L 26.667969 31.332031 C 27.3125 31.332031 28 30.648438 28 30 L 28 9.332031 L 19.332031 0.667969 Z "/>
<path style="fill:#000;fill-opacity:.196" d="M 19.332031 8 L 19.375 8.042969 L 19.480469 8 Z M 20.667969 9.332031 L 28 16.667969 L 28 9.332031 Z "/>
<path style="fill:#fff;fill-opacity:.392" d="M 19.332031 0.667969 L 28 9.332031 L 20.667969 9.332031 C 20.019531 9.332031 19.332031 8.648438 19.332031 8 Z "/>
<g style="fill:#fff">
<path d="M 12.207031 13.332031 C 11.996094 13.355469 12 13.445312 12 13.792969 L 12 17.332031 C 12 16.597656 12.597656 16 13.332031 16 C 14.070312 16 14.667969 16.597656 14.667969 17.332031 C 14.667969 18.070312 14.070312 18.667969 13.332031 18.667969 C 12.597656 18.667969 12 18.070312 12 17.332031 L 12 20.832031 C 12 21.335938 12 21.332031 12.5 21.332031 L 16 21.332031 C 15.261719 21.332031 14.667969 20.738281 14.667969 20 C 14.667969 19.261719 15.261719 18.667969 16 18.667969 C 16.738281 18.667969 17.332031 19.261719 17.332031 20 C 17.332031 20.738281 16.738281 21.332031 16 21.332031 L 19.5 21.332031 C 20 21.332031 20 21.332031 20 20.832031 L 20 13.832031 C 20 13.332031 20 13.332031 19.5 13.332031 L 12.5 13.332031 C 12.375 13.332031 12.277344 13.324219 12.207031 13.332031 Z "/>
<path d="M 17.332031 12 C 17.332031 12.738281 16.734375 13.332031 16 13.332031 C 15.261719 13.332031 14.667969 12.738281 14.667969 12 C 14.667969 11.261719 15.261719 10.667969 16 10.667969 C 16.734375 10.667969 17.332031 11.261719 17.332031 12 Z "/>
<path d="M 22.667969 17.332031 C 22.667969 18.070312 22.070312 18.667969 21.332031 18.667969 C 20.597656 18.667969 20 18.070312 20 17.332031 C 20 16.597656 20.597656 16 21.332031 16 C 22.070312 16 22.667969 16.597656 22.667969 17.332031 Z "/>
</g>
<path style="fill:#000;fill-opacity:.196" d="M 4 23.332031 L 4 30 C 4 30.648438 4.6875 31.332031 5.332031 31.332031 L 26.667969 31.332031 C 27.3125 31.332031 28 30.648438 28 30 L 28 23.332031 Z "/>
<g style="fill:#fff">
<path d="M 10.484375 27.332031 C 10.484375 27.582031 10.492188 27.816406 10.511719 28.035156 C 10.535156 28.25 10.578125 28.4375 10.640625 28.597656 C 10.707031 28.757812 10.800781 28.882812 10.917969 28.976562 C 11.035156 29.070312 11.191406 29.117188 11.386719 29.117188 C 11.578125 29.117188 11.730469 29.070312 11.847656 28.976562 C 11.96875 28.882812 12.0625 28.757812 12.125 28.597656 C 12.191406 28.429688 12.234375 28.242188 12.253906 28.027344 C 12.277344 27.8125 12.289062 27.582031 12.289062 27.332031 C 12.289062 27.085938 12.277344 26.855469 12.253906 26.640625 C 12.234375 26.417969 12.191406 26.230469 12.125 26.070312 C 12.0625 25.910156 11.972656 25.785156 11.855469 25.691406 C 11.738281 25.597656 11.582031 25.550781 11.386719 25.550781 C 11.191406 25.550781 11.035156 25.597656 10.917969 25.691406 C 10.800781 25.785156 10.707031 25.914062 10.640625 26.078125 C 10.578125 26.238281 10.535156 26.425781 10.511719 26.640625 C 10.492188 26.855469 10.484375 27.085938 10.484375 27.332031 M 9.332031 27.332031 C 9.332031 26.453125 9.515625 25.789062 9.875 25.34375 C 10.238281 24.890625 10.742188 24.667969 11.386719 24.667969 C 12.054688 24.667969 12.566406 24.890625 12.914062 25.34375 C 13.265625 25.789062 13.441406 26.453125 13.441406 27.332031 C 13.441406 28.214844 13.261719 28.878906 12.90625 29.332031 C 12.550781 29.777344 12.046875 30 11.394531 30 C 10.726562 30 10.214844 29.777344 9.859375 29.332031 C 9.507812 28.878906 9.332031 28.214844 9.332031 27.332031 "/>
<path d="M 16.96875 29.890625 C 16.851562 29.613281 16.707031 29.300781 16.535156 28.960938 C 16.367188 28.617188 16.191406 28.277344 16.007812 27.9375 C 15.832031 28.261719 15.652344 28.597656 15.476562 28.953125 C 15.296875 29.296875 15.144531 29.613281 15.015625 29.890625 L 13.789062 29.890625 C 13.851562 29.742188 13.941406 29.566406 14.058594 29.355469 C 14.179688 29.148438 14.3125 28.921875 14.453125 28.679688 C 14.601562 28.4375 14.753906 28.1875 14.914062 27.9375 C 15.074219 27.675781 15.226562 27.429688 15.375 27.191406 L 13.882812 24.78125 L 15.105469 24.78125 L 16.007812 26.417969 L 16.957031 24.78125 L 18.097656 24.78125 L 16.644531 27.167969 C 16.808594 27.40625 16.972656 27.652344 17.132812 27.910156 C 17.292969 28.167969 17.441406 28.421875 17.574219 28.671875 C 17.714844 28.914062 17.839844 29.140625 17.941406 29.355469 C 18.046875 29.566406 18.128906 29.742188 18.191406 29.890625 L 16.96875 29.890625 "/>
<path d="M 22.667969 24.78125 L 22.667969 25.625 L 21.164062 25.625 L 21.164062 29.890625 L 20.023438 29.890625 L 20.023438 25.625 L 18.523438 25.625 L 18.523438 24.78125 L 22.667969 24.78125 "/>
</g>
</svg>
